public/MailSvg.svg

<svg width="16" height="14" viewBox="0 0 16 14" fill="none" xmlns="http://www.w3.org/2000/svg">
<path fill-rule="evenodd" clip-rule="evenodd" d="M3.17442 0.5L12.8256 0.5C13.1765 0.499992 13.4793 0.499984 13.7299 0.517347C13.9938 0.535637 14.2577 0.575855 14.5185 0.685543C15.1065 0.932933 15.5738 1.40746 15.8173 2.00471C15.9253 2.26953 15.9649 2.53758 15.983 2.80557C16 3.06009 16 3.36761 16 3.72401V10.276C16 10.6324 16 10.9399 15.983 11.1944C15.9649 11.4624 15.9253 11.7305 15.8173 11.9953C15.5738 12.5925 15.1065 13.0671 14.5185 13.3144C14.2577 13.4241 13.9938 13.4643 13.7299 13.4827C13.4793 13.5 13.1765 13.5 12.8256 13.5H3.17441C2.82349 13.5 2.5207 13.5 2.2701 13.4827C2.00623 13.4643 1.7423 13.4241 1.48156 13.3144C0.893496 13.0671 0.426272 12.5925 0.182688 11.9953C0.0746883 11.7305 0.0350883 11.4624 0.0170803 11.1944C-1.57282e-05 10.9399 -7.65387e-06 10.6324 3.46134e-07 10.276L3.46134e-07 3.72402C-7.65387e-06 3.36761 -1.57282e-05 3.06009 0.0170803 2.80557C0.0350883 2.53758 0.0746883 2.26953 0.182688 2.00471C0.426272 1.40746 0.893496 0.932933 1.48156 0.685543C1.7423 0.575855 2.00623 0.535637 2.2701 0.517347C2.5207 0.499984 2.8235 0.499992 3.17442 0.5ZM1.85396 2.35069C2.14491 2.01299 2.65032 1.97877 2.98283 2.27426L7.4732 6.26469C7.7748 6.53273 8.2252 6.53273 8.5268 6.26469L13.0172 2.27426C13.3497 1.97877 13.8551 2.01299 14.146 2.35069C14.437 2.6884 14.4033 3.2017 14.0708 3.49719L9.5804 7.48766C8.67552 8.29179 7.32448 8.29179 6.4196 7.48766L1.92922 3.49719C1.59671 3.2017 1.56302 2.6884 1.85396 2.35069Z" fill="white"/>
</svg>

<svg xmlns="http://www.w3.org/2000/svg" width="16" height="14" fill="none"><path fill="#fff" fill-rule="evenodd" d="M3.174.5h9.652c.35 0 .653 0 .904.017.264.019.528.059.788.169a2.42 2.42 0 0 1 1.3 1.319c.107.265.147.533.165.8.017.255.017.563.017.919v6.552c0 .356 0 .664-.017.918a2.5 2.5 0 0 1-.166.801 2.42 2.42 0 0 1-1.299 1.32c-.26.11-.524.15-.788.168-.25.017-.553.017-.904.017H3.174c-.35 0-.653 0-.904-.017a2.4 2.4 0 0 1-.788-.169 2.42 2.42 0 0 1-1.3-1.319 2.5 2.5 0 0 1-.165-.8C0 10.94 0 10.631 0 10.275V3.724c0-.356 0-.664.017-.918.018-.268.058-.536.166-.801A2.42 2.42 0 0 1 1.482.685c.26-.11.524-.15.788-.168C2.52.5 2.824.5 3.174.5m-1.32 1.85a.79.79 0 0 1 1.129-.076l4.49 3.99a.79.79 0 0 0 1.054 0l4.49-3.99a.79.79 0 0 1 1.129.077.82.82 0 0 1-.075 1.146l-4.49 3.99a2.37 2.37 0 0 1-3.161 0l-4.49-3.99a.82.82 0 0 1-.076-1.146" clip-rule="evenodd"/></svg>
